!!!OTL: Der Hagenauer Sohn.
!!!OTL-incipit: IN DER STADT HAGENAU GENANNT
!!!ARE: Europa, Mitteleuropa, Deutschland, Niederrhein
!!!SCT: Z1024
!!!TXL: @@DE
!!!YEM: Copyright 1995, estate of Helmut Schaffrath.
**kern	**text
*ICvox	*
*M3/4	*
*k[f#]	*
*G:	*
!LO:TX:a:t=Vom Niederrheine.	!
{8g	Jn
8b/	der
8cc/	Stadt
=1	=1
4.dd	Ha-
8ee	-gen-
8dd	-au
8cc	ge-
=2	=2
4.b/}	-nannt,
{8a	da
8b/	wohnten
8cc/	.
=3	=3
4.dd/	ʒwei
8ee	Eh'
8dd	leut'
8cc	wohlbekannt
=4	=4
4b/	.
8r}	.
{8b/	ſie
8dd/	hat-
8b/	-ten
=5	=5
4.a	ei-
8b/	-nen
8cc/	einʒigen
8b/	.
=6	=6
4.a}	Sohn,
{8dd	all
8dd	Uebels
8dd	ſie
=7	=7
4.dd	ihm
8b/	ge-
8cc/	-ſtat-
8a	-ten
=8	=8
4g	dohn.
8r}	.
==	==
!!!AGN: Romanze, Ballade
!!!ONB: ESAC (Essen Associative Code) Database: ZUCCAL
!!!AMT: simple triple
!!!AIN: vox
!!!EED: Helmut Schaffrath
!!!EEV: 1.0
!!@@COMMENT:"In original two voices"
!!@@END:
!!!GTL: I. Volks- Leuschen.
!!!URL-scan: https://www.digitale-sammlungen.de/de/view/bsb11160573?page=64
!!!ENC: Anna Maria Matuszewska
!!!EEV: 2025/03/02
*-	*-
